X: 17291
T: Heroes Of Longhope, The
R: jig
M: 6/8
K: Gmajor
B2c|dD2 B2A|GD2 G2F|EG2 G2E|E(D2 D2)B/c/|
d2d e2d|BG2 D2B|AA2 A2G|F3 d2c|
Bd2 B2A|GD2 G2F|EG2 G2E|E(D2 D2)B/c/|
d2G e2d|BD2 B2A|G3 G3|G2 z:|
|:F2G|AD2 F2A|ce2 d2c|B2A B2c|(d3 d2)z|
^c2B c2d|e3 a2g|f2g f2e|(d3 d2)=c|
Bd2 B2A|GD2 G2F|EG2 G2E|E(D2 D2)B/c/|
d2G e2d|BD2 B2A|G3 G3|G2 z:|

